images/stars-comments.svg

<svg width="76" height="43" viewBox="0 0 76 43" fill="none" xmlns="http://www.w3.org/2000/svg">
<path d="M11.0272 4.39058C11.4763 3.00861 13.4314 3.00861 13.8804 4.39058L14.9131 7.5689C15.1139 8.18694 15.6899 8.60538 16.3397 8.60538H19.6816C21.1347 8.60538 21.7388 10.4648 20.5633 11.3189L17.8596 13.2832C17.3339 13.6652 17.1139 14.3422 17.3147 14.9603L18.3474 18.1386C18.7964 19.5206 17.2147 20.6697 16.0391 19.8156L13.3355 17.8513C12.8098 17.4694 12.0979 17.4694 11.5721 17.8513L8.8685 19.8156C7.69293 20.6697 6.11121 19.5206 6.56023 18.1386L7.59293 14.9603C7.79375 14.3422 7.57376 13.6652 7.04803 13.2832L4.34438 11.3189C3.16881 10.4648 3.77297 8.60538 5.22606 8.60538H8.56795C9.21779 8.60538 9.79372 8.18694 9.99453 7.5689L11.0272 4.39058Z" fill="#99D4FF"/>
<path d="M11.0272 4.39058C11.4762 3.00861 13.4313 3.00861 13.8804 4.39058L14.9131 7.5689C15.1139 8.18694 15.6898 8.60538 16.3396 8.60538H19.6815C21.1346 8.60538 21.7388 10.4648 20.5632 11.3189L17.8596 13.2832C17.3338 13.6652 17.1138 14.3422 17.3147 14.9603L18.3474 18.1386C18.7964 19.5206 17.2147 20.6698 16.0391 19.8156L12.8481 17.4972C12.5918 17.311 12.401 17.0485 12.3032 16.7472L9.80832 9.0689C9.71044 8.76764 9.71044 8.44312 9.80832 8.14185L11.0272 4.39058Z" fill="#8BCDFC"/>
<path d="M36.5736 4.39058C37.0226 3.00861 38.9778 3.00861 39.4268 4.39058L40.4595 7.5689C40.6603 8.18694 41.2362 8.60538 41.8861 8.60538H45.228C46.6811 8.60538 47.2852 10.4648 46.1096 11.3189L43.406 13.2832C42.8803 13.6652 42.6603 14.3422 42.8611 14.9603L43.8938 18.1386C44.3428 19.5206 42.7611 20.6697 41.5855 19.8156L38.8819 17.8513C38.3562 17.4694 37.6443 17.4694 37.1185 17.8513L34.4149 19.8156C33.2393 20.6697 31.6576 19.5206 32.1066 18.1386L33.1393 14.9603C33.3401 14.3422 33.1201 13.6652 32.5944 13.2832L29.8908 11.3189C28.7152 10.4648 29.3194 8.60538 30.7724 8.60538H34.1143C34.7642 8.60538 35.3401 8.18694 35.5409 7.5689L36.5736 4.39058Z" fill="#99D4FF"/>
<path d="M36.5736 4.39058C37.0226 3.00861 38.9777 3.00861 39.4267 4.39058L40.4594 7.5689C40.6603 8.18694 41.2362 8.60538 41.886 8.60538H45.2279C46.681 8.60538 47.2852 10.4648 46.1096 11.3189L43.406 13.2832C42.8802 13.6652 42.6602 14.3422 42.861 14.9603L43.8937 18.1386C44.3428 19.5206 42.7611 20.6698 41.5855 19.8156L38.3945 17.4972C38.1382 17.311 37.9474 17.0485 37.8495 16.7472L35.3547 9.0689C35.2568 8.76764 35.2568 8.44312 35.3547 8.14185L36.5736 4.39058Z" fill="#8BCDFC"/>
<path d="M62.1195 4.39058C62.5685 3.00861 64.5237 3.00861 64.9727 4.39058L66.0054 7.5689C66.2062 8.18694 66.7821 8.60538 67.432 8.60538H70.7739C72.227 8.60538 72.8311 10.4648 71.6555 11.3189L68.9519 13.2832C68.4262 13.6652 68.2062 14.3422 68.407 14.9603L69.4397 18.1386C69.8887 19.5206 68.307 20.6697 67.1314 19.8156L64.4278 17.8513C63.9021 17.4694 63.1902 17.4694 62.6644 17.8513L59.9608 19.8156C58.7852 20.6697 57.2035 19.5206 57.6525 18.1386L58.6852 14.9603C58.886 14.3422 58.666 13.6652 58.1403 13.2832L55.4367 11.3189C54.2611 10.4648 54.8653 8.60538 56.3183 8.60538H59.6602C60.3101 8.60538 60.886 8.18694 61.0868 7.5689L62.1195 4.39058Z" fill="#99D4FF"/>
<path d="M62.1195 4.39058C62.5685 3.00861 64.5236 3.00861 64.9726 4.39058L66.0053 7.5689C66.2062 8.18694 66.7821 8.60538 67.4319 8.60538H70.7738C72.2269 8.60538 72.8311 10.4648 71.6555 11.3189L68.9518 13.2832C68.4261 13.6652 68.2061 14.3422 68.4069 14.9603L69.4396 18.1386C69.8887 19.5206 68.307 20.6698 67.1314 19.8156L63.5962 17.2472C63.5629 17.223 63.5332 17.1943 63.5079 17.1618C63.4761 17.121 63.4518 17.0748 63.436 17.0255L60.8968 9.06547C60.8013 8.7663 60.8022 8.44473 60.8992 8.14608L62.1195 4.39058Z" fill="#8BCDFC"/>
<path d="M24.4135 22.4617C24.8625 21.0797 26.8176 21.0797 27.2666 22.4617L28.2993 25.64C28.5001 26.258 29.0761 26.6765 29.7259 26.6765H33.0678C34.5209 26.6765 35.1251 28.5359 33.9495 29.39L31.2458 31.3543C30.7201 31.7363 30.5001 32.4133 30.7009 33.0314L31.7336 36.2097C32.1827 37.5917 30.6009 38.7408 29.4254 37.8867L26.7217 35.9224C26.196 35.5405 25.4841 35.5405 24.9584 35.9224L22.2547 37.8867C21.0792 38.7408 19.4974 37.5917 19.9465 36.2097L20.9792 33.0314C21.18 32.4133 20.96 31.7363 20.4343 31.3543L17.7306 29.39C16.555 28.5359 17.1592 26.6765 18.6123 26.6765H21.9542C22.604 26.6765 23.18 26.258 23.3808 25.64L24.4135 22.4617Z" fill="#99D4FF"/>
<path d="M24.4134 22.4618C24.8624 21.0799 26.8176 21.0799 27.2666 22.4618L28.2993 25.6402C28.5001 26.2582 29.076 26.6766 29.7259 26.6766H33.0678C34.5208 26.6766 35.125 28.5361 33.9494 29.3902L31.2458 31.3545C30.7201 31.7365 30.5001 32.4135 30.7009 33.0315L31.7336 36.2099C32.1826 37.5918 30.6009 38.741 29.4253 37.8869L26.2343 35.5685C25.978 35.3823 25.7873 35.1198 25.6894 34.8185L23.1946 27.1402C23.0967 26.8389 23.0967 26.5144 23.1946 26.2131L24.4134 22.4618Z" fill="#8BCDFC"/>
<path d="M49.9599 22.4618C50.4089 21.0799 52.364 21.0799 52.813 22.4618L53.8457 25.6402C54.0465 26.2582 54.6225 26.6766 55.2723 26.6766H58.6142C60.0673 26.6766 60.6714 28.5361 59.4959 29.3902L56.7922 31.3545C56.2665 31.7364 56.0465 32.4135 56.2473 33.0315L57.28 36.2099C57.7291 37.5918 56.1473 38.741 54.9718 37.8869L52.2681 35.9226C51.7424 35.5406 51.0305 35.5406 50.5048 35.9226L47.8011 37.8869C46.6255 38.741 45.0438 37.5918 45.4929 36.2099L46.5256 33.0315C46.7264 32.4135 46.5064 31.7364 45.9806 31.3545L43.277 29.3902C42.1014 28.5361 42.7056 26.6766 44.1587 26.6766H47.5006C48.1504 26.6766 48.7263 26.2582 48.9272 25.6402L49.9599 22.4618Z" fill="#99D4FF"/>
<path d="M49.9603 22.4618C50.4093 21.0799 52.3644 21.0799 52.8135 22.4618L53.8462 25.6402C54.047 26.2582 54.6229 26.6766 55.2727 26.6766H58.6146C60.0677 26.6766 60.6719 28.5361 59.4963 29.3902L56.7927 31.3545C56.2669 31.7365 56.047 32.4135 56.2478 33.0315L57.2805 36.2099C57.7295 37.5918 56.1478 38.741 54.9722 37.8869L51.4371 35.3185C51.4038 35.2943 51.374 35.2656 51.3488 35.2331C51.3169 35.1922 51.2926 35.1461 51.2769 35.0967L48.7376 27.1367C48.6422 26.8376 48.643 26.516 48.7401 26.2173L49.9603 22.4618Z" fill="#8BCDFC"/>
</svg>

<svg width="76" height="43" fill="none" xmlns="http://www.w3.org/2000/svg"><path d="M11.027 4.39c.45-1.381 2.404-1.381 2.853 0l1.033 3.179a1.5 1.5 0 001.427 1.036h3.342c1.453 0 2.057 1.86.881 2.714l-2.703 1.964a1.5 1.5 0 00-.545 1.677l1.032 3.179c.45 1.382-1.132 2.53-2.308 1.677l-2.704-1.965a1.5 1.5 0 00-1.763 0l-2.704 1.965c-1.175.854-2.757-.295-2.308-1.677l1.033-3.179a1.5 1.5 0 00-.545-1.677L4.344 11.32c-1.175-.854-.571-2.714.882-2.714h3.342A1.5 1.5 0 009.995 7.57l1.032-3.178z" fill="#99D4FF"/><path d="M11.027 4.39c.45-1.381 2.404-1.381 2.853 0l1.033 3.179a1.5 1.5 0 001.427 1.036h3.341c1.454 0 2.058 1.86.882 2.714l-2.703 1.964a1.5 1.5 0 00-.545 1.677l1.032 3.179c.45 1.382-1.132 2.53-2.308 1.677l-3.19-2.319a1.5 1.5 0 01-.546-.75L9.808 9.07a1.5 1.5 0 010-.927l1.22-3.751z" fill="#8BCDFC"/><path d="M36.574 4.39c.449-1.381 2.404-1.381 2.853 0l1.032 3.179a1.5 1.5 0 001.427 1.036h3.342c1.453 0 2.057 1.86.882 2.714l-2.704 1.964a1.5 1.5 0 00-.545 1.677l1.033 3.179c.449 1.382-1.133 2.53-2.308 1.677l-2.704-1.965a1.5 1.5 0 00-1.764 0l-2.703 1.965c-1.176.854-2.757-.295-2.308-1.677l1.032-3.179a1.5 1.5 0 00-.545-1.677l-2.703-1.964c-1.176-.854-.572-2.714.881-2.714h3.342a1.5 1.5 0 001.427-1.036l1.033-3.178z" fill="#99D4FF"/><path d="M36.574 4.39c.449-1.381 2.404-1.381 2.853 0l1.032 3.179a1.5 1.5 0 001.427 1.036h3.342c1.453 0 2.057 1.86.882 2.714l-2.704 1.964a1.5 1.5 0 00-.545 1.677l1.033 3.179c.449 1.382-1.133 2.53-2.308 1.677l-3.191-2.319a1.5 1.5 0 01-.546-.75L35.355 9.07a1.5 1.5 0 010-.927l1.219-3.751z" fill="#8BCDFC"/><path d="M62.12 4.39c.449-1.381 2.404-1.381 2.853 0l1.032 3.179a1.5 1.5 0 001.427 1.036h3.342c1.453 0 2.057 1.86.882 2.714l-2.704 1.964a1.5 1.5 0 00-.545 1.677l1.033 3.179c.449 1.382-1.133 2.53-2.309 1.677l-2.703-1.965a1.5 1.5 0 00-1.764 0l-2.703 1.965c-1.176.854-2.758-.295-2.308-1.677l1.032-3.179a1.5 1.5 0 00-.545-1.677l-2.703-1.964c-1.176-.854-.572-2.714.881-2.714h3.342a1.5 1.5 0 001.427-1.036l1.032-3.178z" fill="#99D4FF"/><path d="M62.12 4.39c.449-1.381 2.404-1.381 2.853 0l1.032 3.179a1.5 1.5 0 001.427 1.036h3.342c1.453 0 2.057 1.86.882 2.714l-2.704 1.964a1.5 1.5 0 00-.545 1.677l1.033 3.179c.449 1.382-1.133 2.53-2.309 1.677l-3.535-2.569a.439.439 0 01-.16-.221l-2.54-7.96a1.5 1.5 0 01.003-.92l1.22-3.755z" fill="#8BCDFC"/><path d="M24.413 22.462c.45-1.382 2.405-1.382 2.854 0l1.032 3.178a1.5 1.5 0 001.427 1.037h3.342c1.453 0 2.057 1.859.882 2.713l-2.704 1.964a1.5 1.5 0 00-.545 1.677l1.033 3.179c.449 1.382-1.133 2.53-2.309 1.677l-2.703-1.965a1.5 1.5 0 00-1.764 0l-2.703 1.965c-1.176.854-2.758-.295-2.308-1.677l1.032-3.179a1.5 1.5 0 00-.545-1.677l-2.703-1.964c-1.176-.854-.572-2.713.881-2.713h3.342a1.5 1.5 0 001.427-1.037l1.032-3.178z" fill="#99D4FF"/><path d="M24.413 22.462c.45-1.382 2.405-1.382 2.854 0l1.032 3.178a1.5 1.5 0 001.427 1.037h3.342c1.453 0 2.057 1.86.881 2.713l-2.703 1.965a1.5 1.5 0 00-.545 1.677l1.033 3.178c.449 1.382-1.133 2.531-2.309 1.677l-3.19-2.319a1.5 1.5 0 01-.546-.75l-2.494-7.678a1.5 1.5 0 010-.927l1.218-3.751z" fill="#8BCDFC"/><path d="M49.96 22.462c.449-1.382 2.404-1.382 2.853 0l1.033 3.178a1.5 1.5 0 001.426 1.037h3.342c1.453 0 2.057 1.86.882 2.713l-2.704 1.965a1.5 1.5 0 00-.545 1.677l1.033 3.178c.45 1.382-1.133 2.531-2.308 1.677l-2.704-1.964a1.5 1.5 0 00-1.763 0L47.8 37.887c-1.175.854-2.757-.295-2.308-1.677l1.033-3.178a1.5 1.5 0 00-.545-1.677l-2.704-1.965c-1.176-.854-.571-2.713.882-2.713H47.5a1.5 1.5 0 001.426-1.037l1.033-3.178z" fill="#99D4FF"/><path d="M49.96 22.462c.45-1.382 2.404-1.382 2.853 0l1.033 3.178a1.5 1.5 0 001.427 1.037h3.342c1.453 0 2.057 1.86.881 2.713l-2.703 1.965a1.5 1.5 0 00-.545 1.677l1.033 3.178c.449 1.382-1.133 2.531-2.309 1.677l-3.535-2.569a.436.436 0 01-.16-.221l-2.54-7.96a1.5 1.5 0 01.003-.92l1.22-3.755z" fill="#8BCDFC"/></svg>
